X:532381 F:http://www.vwml.org/record/HAM/5/32/38%%VWML:HAM-5-32-38-0 T:Cruel Mother, The
S:Mrs Marina Russell, Upwey coll. HED Hammond
O:England
A:Dorset
N:Transcribed from HAM-05-095
F:HAM-05-32-38
Z:EFDSS;PJHeadford
M:C
L:1/8
Q:2/4=50
K:G
G2|A Ac2 B BG2|ABc2 B4|A3B c2B> A|(A2G2) E2F2|
w:|||All a-lone and so|lone-*ly
G2F2 E2DC|D2D2 D2D> D|"^*"E F E D2D2|E4 HA2||
w:|***and 'tis down by the green-wood side-oh!
W:no doubt Purslow intended a crotchet rather than a quaver at * - PJH W:Transcribed from HAM-05-095
% downloaded from http://folkopedia.efdss.org/HAM-05-33-01.abc
